ui/StatusQ/src/assets/img/icons/untrustworthy.svg

<svg fill="none" height="10" viewBox="0 0 10 10" width="10" xmlns="http://www.w3.org/2000/svg"><circle cx="5" cy="5" fill="#ff2d55" r="5"/><path clip-rule="evenodd" d="m5.78125 7.65625c0 .43147-.34978.78125-.78125.78125s-.78125-.34978-.78125-.78125.34978-.78125.78125-.78125.78125.34978.78125.78125zm-.78125-5.78125c-.34518 0-.625.27982-.625.625v2.8125c0 .34518.27982.625.625.625s.625-.27982.625-.625v-2.8125c0-.34518-.27982-.625-.625-.625z" fill="#fff" fill-rule="evenodd"/></svg>

<svg width="10" height="10" viewBox="0 0 10 10" fill="none" xmlns="http://www.w3.org/2000/svg">
<circle cx="5" cy="5" r="5" fill="#FF2D55"/>
<path fill-rule="evenodd" clip-rule="evenodd" d="M5.78125 7.65625C5.78125 8.08772 5.43147 8.4375 5 8.4375C4.56853 8.4375 4.21875 8.08772 4.21875 7.65625C4.21875 7.22478 4.56853 6.875 5 6.875C5.43147 6.875 5.78125 7.22478 5.78125 7.65625ZM5 1.875C4.65482 1.875 4.375 2.15482 4.375 2.5V5.3125C4.375 5.65768 4.65482 5.9375 5 5.9375C5.34518 5.9375 5.625 5.65768 5.625 5.3125V2.5C5.625 2.15482 5.34518 1.875 5 1.875Z" fill="white"/>
</svg>
